X:17
T:Jolly Tinker in D 'minor'
R:reel
B:O'Neills Collection in A minor
D:Claire Keville, John Weir, Eithne Ni Dhonaile: An Tri is a Rian
O: Paddy Killoran 78 in A minor
S:Clare FM
Z:psc -  http://www.cranfordpub.com
L:1/8
Q:333
M:C|
K:Dmix
d3 c AGFG|Addc A2 Gc|A2 dc ABcA|GEED CDEG|
Ad ~d2 fd ~d2|Addc A2 Gc|A2 dc ABcA|GEED CDEG||
||AD D/D/D A,DDc|AGAB c2 Bc|ADDG ECEG|AdcA G2 FG|
AD D/D/D A,DDc|AGAB c2 Bc|ADDG ECEG|AdcA GABc||
||~d3 B ~c3 A|dA A/A/A afge|dedB c2 Ac|B/c/d ef gefe|
~d3 B ~c3 A|dA A/A/A afge|dedB c2 Ac|B/c/d ef g2||
||(3(efg)|ad d/d/d adbd|addf a2 gb|ad d/d/d adfd|B/c/d ef g2 (3(efg)|
ad d/d/d adbd|addf a2 (3(efg)|abaf eged|B/c/d ef gefe|]
